X:32
T:Tatter Jack Walsh
N:Jig    Allan's  #32
N:Trad/Anon
B:Allan's Irish Fiddler (pub. Mozart Allen,  Glascow) date unknown
Z:FROM ALLAN'S TO NOTEWORTHY, FROM NOTEWORTHY TO ABC, MIDI AND .TXT BY VINCE
BRENNAN Dec. 2002 (HTTP://WWW.SOSYOURMOM.COM)
I:abc2nwc
M:6/8
L:1/8
K:D
(a/2g/2)|fef dfe|=cAB c2d|=cAF GFG|Add d2e|
fef ded|=cAB c2d|=cAF GFG|Add d2:|
|:A|dfa afd|dfaa2B|=ceg {a}gfg|=ceg gag|
{g}f efded|=cABc2d|=cAF GFG|Add d2:|
